symbolic/48x48/apps/com.frac_tion.teleport.svg

<svg xmlns="http://www.w3.org/2000/svg" width="48" height="48" version="1">
 <ellipse style="opacity:0.2" cx="24" cy="39" rx="18" ry="6"/>
 <ellipse style="fill:#4f4f4f" cx="24" cy="38" rx="18" ry="6"/>
 <ellipse style="fill:#3f3f3f" cx="24" cy="35" rx="12" ry="3"/>
 <path style="opacity:0.2" d="M 8,9 H 40 L 30,36 H 18 Z"/>
 <path style="fill:#008bad" d="M 8,8 H 40 L 30,35 H 18 Z"/>
 <ellipse style="opacity:0.2;fill:none;stroke:#000000;stroke-width:4;stroke-linecap:square;stroke-linejoin:bevel" cx="24" cy="26" rx="10" ry="3"/>
 <path style="fill:none;stroke:#61fff7;stroke-width:4;stroke-linecap:square;stroke-linejoin:bevel" d="M 34,25 A 10,3 0 0 1 24,28 10,3 0 0 1 14,25 10,3 0 0 1 24,22 10,3 0 0 1 34,25 Z"/>
 <ellipse style="opacity:0.2;fill:none;stroke:#000000;stroke-width:4;stroke-linecap:square;stroke-linejoin:bevel" cx="24" cy="19" rx="14" ry="4"/>
 <path style="fill:none;stroke:#61fff7;stroke-width:4;stroke-linecap:square;stroke-linejoin:bevel" d="M 38,18.000189 A 14,3.9998107 0 0 1 24,22 14,3.9998107 0 0 1 10,18.000189 14,3.9998107 0 0 1 24,14.000378 14,3.9998107 0 0 1 38,18.000189 Z"/>
 <ellipse style="opacity:0.2;fill:none;stroke:#000000;stroke-width:4;stroke-linecap:square;stroke-linejoin:bevel" cx="24" cy="11" rx="18" ry="4"/>
 <path style="fill:none;stroke:#61fff7;stroke-width:4;stroke-linecap:square;stroke-linejoin:bevel" d="M 42,10 A 18,4 0 0 1 24,14 18,4 0 0 1 6,10 18,4 0 0 1 24,6 18,4 0 0 1 42,10 Z"/>
 <path style="opacity:0.2;fill:#f4f4f7" d="M 24 4 C 18.909339 4 14.305548 4.4481595 10.837891 5.21875 C 9.1040615 5.6040453 7.6608015 6.0537895 6.484375 6.671875 C 5.8961618 6.9809177 5.3639456 7.3300725 4.8945312 7.8398438 C 4.4251169 8.3496149 4 9.1158625 4 10 C 4 10.173062 4.0288736 10.337011 4.0585938 10.5 C 4.180708 9.8303127 4.5170004 9.249832 4.8945312 8.8398438 C 5.3639456 8.3300725 5.8961618 7.9809177 6.484375 7.671875 C 7.6608015 7.0537895 9.1040615 6.6040453 10.837891 6.21875 C 14.305548 5.4481595 18.909339 5 24 5 C 29.090661 5 33.694452 5.4481595 37.162109 6.21875 C 38.895938 6.6040453 40.339199 7.0537895 41.515625 7.671875 C 42.103838 7.9809177 42.636054 8.3300724 43.105469 8.8398438 C 43.482999 9.249832 43.819292 9.8303127 43.941406 10.5 C 43.971126 10.337011 44 10.173062 44 10 C 44 9.1158625 43.574883 8.3496149 43.105469 7.8398438 C 42.636054 7.3300725 42.103838 6.9809177 41.515625 6.671875 C 40.339199 6.0537895 38.895938 5.6040453 37.162109 5.21875 C 33.694452 4.4481595 29.090661 4 24 4 z M 10.347656 10.5 C 9.8351637 10.666841 9.3876748 10.835904 9.0019531 11 C 9.6865419 11.291241 10.479166 11.604528 11.705078 11.876953 C 14.752139 12.554078 19.149535 13 24 13 C 28.850465 13 33.247861 12.554078 36.294922 11.876953 C 37.520834 11.604528 38.313458 11.291241 38.998047 11 C 38.612325 10.835904 38.164836 10.666841 37.652344 10.5 C 37.255251 10.629273 36.830112 10.758022 36.294922 10.876953 C 33.247861 11.554078 28.850465 12 24 12 C 19.149535 12 14.752139 11.554078 11.705078 10.876953 C 11.169888 10.758022 10.744749 10.629273 10.347656 10.5 z"/>
</svg>

<svg xmlns="http://www.w3.org/2000/svg" width="48" height="48" version="1"><ellipse style="opacity:.2" cx="24" cy="39" rx="18" ry="6"/><ellipse style="fill:#4f4f4f" cx="24" cy="38" rx="18" ry="6"/><ellipse style="fill:#3f3f3f" cx="24" cy="35" rx="12" ry="3"/><path style="opacity:.2" d="M8 9h32L30 36H18z"/><path style="fill:#008bad" d="M8 8h32L30 35H18z"/><ellipse style="opacity:.2;fill:none;stroke:#000;stroke-width:4;stroke-linecap:square;stroke-linejoin:bevel" cx="24" cy="26" rx="10" ry="3"/><path style="fill:none;stroke:#61fff7;stroke-width:4;stroke-linecap:square;stroke-linejoin:bevel" d="M34 25a10 3 0 0 1-10 3 10 3 0 0 1-10-3 10 3 0 0 1 10-3 10 3 0 0 1 10 3z"/><ellipse style="opacity:.2;fill:none;stroke:#000;stroke-width:4;stroke-linecap:square;stroke-linejoin:bevel" cx="24" cy="19" rx="14" ry="4"/><path style="fill:none;stroke:#61fff7;stroke-width:4;stroke-linecap:square;stroke-linejoin:bevel" d="M38 18a14 4 0 0 1-14 4 14 4 0 0 1-14-4 14 4 0 0 1 14-4 14 4 0 0 1 14 4z"/><ellipse style="opacity:.2;fill:none;stroke:#000;stroke-width:4;stroke-linecap:square;stroke-linejoin:bevel" cx="24" cy="11" rx="18" ry="4"/><path style="fill:none;stroke:#61fff7;stroke-width:4;stroke-linecap:square;stroke-linejoin:bevel" d="M42 10a18 4 0 0 1-18 4 18 4 0 0 1-18-4 18 4 0 0 1 18-4 18 4 0 0 1 18 4z"/><path style="opacity:.2;fill:#f4f4f7" d="M24 4c-5.09 0-9.694.448-13.162 1.219-1.734.385-3.177.835-4.354 1.453-.588.309-1.12.658-1.59 1.168C4.426 8.35 4 9.116 4 10c0 .173.029.337.059.5.122-.67.458-1.25.836-1.66.469-.51 1.001-.86 1.59-1.168 1.176-.618 2.62-1.068 4.353-1.453C14.306 5.449 18.909 5 24 5c5.09 0 9.694.448 13.162 1.219 1.734.385 3.177.835 4.354 1.453.588.309 1.12.658 1.59 1.168.377.41.713.99.835 1.66.03-.163.059-.327.059-.5 0-.884-.425-1.65-.895-2.16-.469-.51-1.001-.86-1.59-1.168-1.176-.618-2.62-1.068-4.353-1.453C33.694 4.449 29.091 4 24 4zm-13.652 6.5c-.513.167-.96.336-1.346.5.685.291 1.477.605 2.703.877C14.752 12.554 19.15 13 24 13s9.248-.446 12.295-1.123A14.329 14.329 0 0 0 38.998 11a16.465 16.465 0 0 0-1.346-.5c-.397.13-.822.258-1.357.377C33.248 11.554 28.85 12 24 12s-9.248-.446-12.295-1.123c-.535-.119-.96-.248-1.357-.377z"/></svg>
